X:1
T:121 - Ecos de Louvor
T:Letra: Richard Holden (1828-1886)
T:Música: William Croft (1678-1727)
M:3/4
L:1/4
Q:1/4=115
K:C
V:1
G | "C"E2G | "Am"c2e | ("Dm"dc)"G"B | "C"c2e | "G"d2"(Em)"G | ("Am"AG)"D"^F | "G"Gzd | B2"G7"G | "C"c2e | ("Dm"ed)"D7"c | ("C/G"cB)"G7"G | c2e | ("Dm"dc)"G""G"B | "C"czE |E2A | "E"^G2A | "Am"BA"E7"^G | "Am"A2"E"B | "Am"c2"Em"B/A/ | G2"B7"^F | "Em"EzG | "C"G2c | "F"A2A | "D7"d2c | ("G"cB)G | "C"c2e | ("Dm"dc)"G"B | "C"c2 |]
w: 1.~A-que-le que, dea-mor_ por nós, À mor-te seen_tre-gou E, pe-la mão to-man_do-nos,_ Do mal nos li_ber-tou; Que nos le-vou de no_voa Deus, O Deus de_ to-dooa-mor, A Cris-to so-em, pe-los céus,_ Os e-cos de_ lou-vor.
w: 2.~Lou-va-do se-ja quem_ nos quis De Deus a-pro_xi-mar, Eem rei-noe sa-cer-do_tes seus_ Com san-gue con_sa-grar. Lou-va-do se-ja quem_ o dom DoEs-pí-ri_to nos deu; Lou-va-do se-ja, pois quea-briu_ Aen-tra-da pa_rao céu.
w: 3.~Aos teus ou-vi-dos, san_to Pai,  E-le-ve-seo_ lou-vor, Que des-tes fra-cos lá_bios sai,_ A Cris-to, Sal_va-dor, Pois mui-to nos a-praz_ sa-ber Quea Ti, no_ san-to lar, Lou-vor a Cris-toa-gra-daou-vir_ Na ter-ra ce_le-brar.
W: 
W:
W: 1. Aquele que, de amor por nós,
W: À morte se entregou
W: E, pela mão tomando-nos,
W: Do mal nos libertou;
W: Que nos levou de novo a Deus,
W: O Deus de todo o amor,
W: A Cristo soem, pelos céus,
W: Os ecos de louvor.
W: 
W: 2. Louvado seja quem nos quis
W: De Deus aproximar,
W: E em reino e sacerdotes seus
W: Com sangue consagrar.
W: Louvado seja quem o dom
W: Do Espírito nos deu;
W: Louvado seja, pois que abriu
W: A entrada para o céu.
W: 
W:
W:
W: 3. Aos teus ouvidos, santo Pai, 
W: Eleve-se o louvor,
W: Que destes fracos lábios sai,
W: A Cristo, Salvador,
W: Pois muito nos apraz saber
W: Que a Ti, no santo lar,
W: Louvor a Cristo agrada ouvir
W: Na terra celebrar.
W:         
W: 





